web/assets/img/functions/45_6.svg

<svg id="vector" xmlns="http://www.w3.org/2000/svg" width="64" height="65" viewBox="0 0 64 65">
    <path fill="#000000"
          d="M22,5.5C19.101,5.5 16.75,7.851 16.75,10.75V47.5H14C13.31,47.5 12.75,48.06 12.75,48.75V54.75C12.75,55.44 13.31,56 14,56H16.9C17.461,58.296 19.531,60 22,60C23.602,60 25.037,59.282 26,58.151C26.963,59.282 28.398,60 30,60C31.602,60 33.037,59.282 34,58.151C34.963,59.282 36.398,60 38,60C39.602,60 41.037,59.282 42,58.151C42.963,59.282 44.398,60 46,60C47.602,60 49.037,59.282 50,58.151C50.963,59.282 52.398,60 54,60C56.469,60 58.54,58.296 59.1,56H62C62.69,56 63.25,55.44 63.25,54.75V48.75C63.25,48.06 62.69,47.5 62,47.5H59.25V18H62C62.69,18 63.25,17.44 63.25,16.75V10.75C63.25,10.06 62.69,9.5 62,9.5H59.1C58.54,7.204 56.469,5.5 54,5.5C52.398,5.5 50.963,6.218 50,7.349C49.037,6.218 47.602,5.5 46,5.5C44.398,5.5 42.963,6.218 42,7.349C41.037,6.218 39.602,5.5 38,5.5C36.398,5.5 34.963,6.218 34,7.349C33.037,6.218 31.602,5.5 30,5.5C28.398,5.5 26.963,6.218 26,7.349C25.037,6.218 23.602,5.5 22,5.5ZM59.25,50V53.5H60.75V50H59.25ZM56.75,48.75V16.75V10.75C56.75,9.231 55.519,8 54,8C52.481,8 51.25,9.231 51.25,10.75V54.75C51.25,56.269 52.481,57.5 54,57.5C55.519,57.5 56.75,56.269 56.75,54.75V48.75ZM60.75,15.5H59.25V12H60.75V15.5ZM16.75,53.5V50H15.25V53.5H16.75ZM19.25,54.75C19.25,56.269 20.481,57.5 22,57.5C23.519,57.5 24.75,56.269 24.75,54.75V10.75C24.75,9.231 23.519,8 22,8C20.481,8 19.25,9.231 19.25,10.75V48.75V54.75ZM48.75,10.75V54.75C48.75,56.269 47.519,57.5 46,57.5C44.481,57.5 43.25,56.269 43.25,54.75V10.75C43.25,9.231 44.481,8 46,8C47.519,8 48.75,9.231 48.75,10.75ZM40.75,10.75C40.75,9.231 39.519,8 38,8C36.481,8 35.25,9.231 35.25,10.75V54.75C35.25,56.269 36.481,57.5 38,57.5C39.519,57.5 40.75,56.269 40.75,54.75V10.75ZM32.75,10.75V54.75C32.75,56.269 31.519,57.5 30,57.5C28.481,57.5 27.25,56.269 27.25,54.75V10.75C27.25,9.231 28.481,8 30,8C31.519,8 32.75,9.231 32.75,10.75Z"
          fill-rule="evenodd" id="path_0"/>
    <path fill="#000000"
          d="M8.082,5.5C10.857,5.504 13.115,7.762 13.116,10.536L13.116,32.894L13.167,32.939C14.768,34.367 15.678,36.417 15.664,38.561L15.664,38.563C15.646,40.197 15.116,41.751 14.128,43.056C12.691,44.986 10.486,46.096 8.083,46.1C5.71,46.096 3.522,45.008 2.08,43.113L2.08,43.112L2.034,43.053C1.049,41.751 0.518,40.198 0.5,38.563L0.5,38.562C0.485,36.416 1.395,34.365 2.998,32.936L3.049,32.89V10.535C3.052,7.761 5.31,5.503 8.082,5.5ZM8.863,8.089C8.458,7.969 8.067,7.968 7.773,7.999C7.626,8.015 7.507,8.038 7.425,8.057C7.384,8.066 7.352,8.074 7.332,8.08L7.311,8.086L7.307,8.088L7.303,8.089C6.261,8.414 5.493,9.38 5.47,10.537V33.469C5.469,33.846 5.289,34.208 4.988,34.435C3.697,35.403 2.925,36.948 2.925,38.561C2.924,41.405 5.237,43.721 8.081,43.722C9.696,43.722 11.24,42.95 12.208,41.658C13.913,39.382 13.45,36.142 11.175,34.438L11.174,34.437C10.872,34.209 10.691,33.848 10.691,33.467V10.529C10.667,9.375 9.909,8.414 8.863,8.089Z"
          fill-rule="evenodd" id="path_1"/>
    <path fill="#00D151"
          d="M7.169,19.454V35.877L6.905,35.999C6.219,36.313 5.697,36.875 5.434,37.583C5.172,38.289 5.201,39.057 5.514,39.742C5.828,40.426 6.39,40.949 7.098,41.212C7.804,41.475 8.572,41.446 9.257,41.132C10.672,40.484 11.295,38.805 10.647,37.39C10.365,36.774 9.871,36.282 9.257,36L8.992,35.878V19.452C8.992,18.951 8.583,18.542 8.08,18.541C7.578,18.541 7.168,18.951 7.168,19.454H7.169Z"
          id="path_2"/>
</svg>

<?xml version="1.0" encoding="utf-8"?>
<!-- Generator: Adobe Illustrator 28.2.0, SVG Export Plug-In . SVG Version: 6.00 Build 0)  -->
<svg version="1.1" id="vector" xmlns="http://www.w3.org/2000/svg" xmlns:xlink="http://www.w3.org/1999/xlink" x="0px" y="0px"
	 viewBox="0 0 64 65" style="enable-background:new 0 0 64 65;" xml:space="preserve">
<style type="text/css">
	.st0{fill-rule:evenodd;clip-rule:evenodd;}
	.st1{fill:#33B0DF;stroke:#33B0DF;stroke-miterlimit:10;}
</style>
<path id="path_0" class="st0" d="M22,5.5c-2.9,0-5.2,2.4-5.2,5.2v36.8H14c-0.7,0-1.2,0.6-1.2,1.2v6c0,0.7,0.6,1.2,1.2,1.2h2.9
	c0.6,2.3,2.6,4,5.1,4c1.6,0,3-0.7,4-1.8c1,1.1,2.4,1.8,4,1.8s3-0.7,4-1.8c1,1.1,2.4,1.8,4,1.8s3-0.7,4-1.8c1,1.1,2.4,1.8,4,1.8
	s3-0.7,4-1.8c1,1.1,2.4,1.8,4,1.8c2.5,0,4.5-1.7,5.1-4H62c0.7,0,1.2-0.6,1.2-1.2v-6c0-0.7-0.6-1.2-1.2-1.2h-2.8V18H62
	c0.7,0,1.2-0.6,1.2-1.2v-6c0-0.7-0.6-1.2-1.2-1.2h-2.9c-0.6-2.3-2.6-4-5.1-4c-1.6,0-3,0.7-4,1.8c-1-1.1-2.4-1.8-4-1.8s-3,0.7-4,1.8
	c-1-1.1-2.4-1.8-4-1.8s-3,0.7-4,1.8c-1-1.1-2.4-1.8-4-1.8s-3,0.7-4,1.8C25,6.2,23.6,5.5,22,5.5z M59.2,50v3.5h1.5V50H59.2z
	 M56.8,48.8v-32v-6C56.8,9.2,55.5,8,54,8s-2.8,1.2-2.8,2.8v44c0,1.5,1.2,2.8,2.8,2.8s2.8-1.2,2.8-2.8V48.8z M60.8,15.5h-1.5V12h1.5
	V15.5z M16.8,53.5V50h-1.5v3.5H16.8z M19.2,54.8c0,1.5,1.2,2.8,2.8,2.8s2.8-1.2,2.8-2.8v-44C24.8,9.2,23.5,8,22,8s-2.8,1.2-2.8,2.8
	v38V54.8z M48.8,10.8v44c0,1.5-1.2,2.8-2.8,2.8s-2.8-1.2-2.8-2.8v-44C43.2,9.2,44.5,8,46,8S48.8,9.2,48.8,10.8z M40.8,10.8
	C40.8,9.2,39.5,8,38,8s-2.8,1.2-2.8,2.8v44c0,1.5,1.2,2.8,2.8,2.8s2.8-1.2,2.8-2.8V10.8z M32.8,10.8v44c0,1.5-1.2,2.8-2.8,2.8
	s-2.8-1.2-2.8-2.8v-44C27.2,9.2,28.5,8,30,8S32.8,9.2,32.8,10.8z"/>
<path id="path_1" class="st0" d="M8.1,5.5c2.8,0,5,2.3,5,5v22.4l0.1,0c1.6,1.4,2.5,3.5,2.5,5.6v0c0,1.6-0.5,3.2-1.5,4.5
	c-1.4,1.9-3.6,3-6,3c-2.4,0-4.6-1.1-6-3v0l0-0.1c-1-1.3-1.5-2.9-1.5-4.5v0c0-2.1,0.9-4.2,2.5-5.6l0.1,0V10.5
	C3.1,7.8,5.3,5.5,8.1,5.5z M8.9,8.1C8.5,8,8.1,8,7.8,8C7.6,8,7.5,8,7.4,8.1c0,0-0.1,0-0.1,0l0,0l0,0l0,0c-1,0.3-1.8,1.3-1.8,2.4
	v22.9c0,0.4-0.2,0.7-0.5,1c-1.3,1-2.1,2.5-2.1,4.1c0,2.8,2.3,5.2,5.2,5.2c1.6,0,3.2-0.8,4.1-2.1c1.7-2.3,1.2-5.5-1-7.2l0,0
	c-0.3-0.2-0.5-0.6-0.5-1V10.5C10.7,9.4,9.9,8.4,8.9,8.1z"/>
<path id="path_2" class="st1" d="M7.2,19.5v16.4L6.9,36c-0.7,0.3-1.2,0.9-1.5,1.6c-0.3,0.7-0.2,1.5,0.1,2.2c0.3,0.7,0.9,1.2,1.6,1.5
	c0.7,0.3,1.5,0.2,2.2-0.1c1.4-0.6,2-2.3,1.4-3.7c-0.3-0.6-0.8-1.1-1.4-1.4L9,35.9V19.5c0-0.5-0.4-0.9-0.9-0.9
	C7.6,18.5,7.2,19,7.2,19.5L7.2,19.5z"/>
</svg>
